X:19
T:Porter for Three
M:2/4
L:1/8
K:G
Bc BA|BG EF|GA Bd|ed B/c/d|Bc BA|BGEF|GB AF|G3 z :|
BG Bc|ed dg|ed Bd|ed BA|BG Bc|ed dc|B/c/d cA|G3 z :|
BG GB|AG ED|BD B/c/d|ed dc|BG GB|AG ED|B/c/d cA|G3 z:|
BG Bc|ed dg|fe de|dB AB|GA B/c/d|ed dc|B/c/d cA|G3 z:|
